icons/id-badge-two-color.svg

<?xml version="1.0" encoding="UTF-8"?><svg id="uuid-87e8eeae-1d4e-4138-92d1-cb43640ace67" xmlns="http://www.w3.org/2000/svg" viewBox="0 0 50 50"><path d="M17.46,29.88c-.1,.03-.2,.02-.3-.01h-3.61c-1.09,.06-1.97,.98-1.97,2.09v4.88h7.73v-4.88c0-1.07-.81-1.96-1.86-2.08Z" fill="#ffcd00"/><path d="M13.49,25.26c0,.58,.25,1.12,.7,1.49,.71,.6,1.82,.6,2.52,0,.44-.37,.69-.92,.69-1.49,0-1.08-.88-1.96-1.96-1.96s-1.96,.88-1.96,1.96Z" fill="#ffcd00"/><path d="M47.1,14.47H27.14c-.57,.52-1.31,.84-2.14,.84s-1.57-.32-2.14-.84H4.13v27.4H49.37V14.47h-2.27Zm-26.11,20.63H6.41V18.17h14.57v16.93Z" fill="#ffcd00"/><path d="M48.12,11.72H29.18V4.35c0-.28-.22-.5-.5-.5h-7.36c-.28,0-.5,.22-.5,.5v7.36H1.88c-.28,0-.5,.22-.5,.5v28.4c0,.28,.22,.5,.5,.5H48.12c.28,0,.5-.22,.5-.5V12.22c0-.28-.22-.5-.5-.5Zm-.5,28.4H2.38V12.72H20.88c.29,2.02,2.02,3.59,4.12,3.59s3.83-1.57,4.12-3.59h18.49v27.4ZM21.82,12.12V4.85h6.36v7.27c0,1.75-1.43,3.18-3.18,3.18s-3.18-1.43-3.18-3.18Z"/><path d="M21.49,17.17H5.91c-.28,0-.5,.22-.5,.5v17.93c0,.28,.22,.5,.5,.5h15.57c.28,0,.5-.22,.5-.5V17.67c0-.28-.22-.5-.5-.5Zm-.5,17.93h-2.42v-4.88c0-1.65-1.29-3.01-2.95-3.09h-.01s-.01,0-.02,0h-3.81c-1.65,.08-2.95,1.44-2.95,3.09v4.88h-2.42V18.17h14.57v16.93Zm-11.15,0v-4.88c0-1.12,.88-2.04,1.97-2.09h3.61c.1,.03,.2,.04,.3,.01,1.05,.12,1.86,1.01,1.86,2.08v4.88h-7.73Z"/><path d="M43.95,32.06H26.45c-.28,0-.5,.22-.5,.5s.22,.5,.5,.5h17.49c.28,0,.5-.22,.5-.5s-.22-.5-.5-.5Z"/><path d="M26.45,19.77c-.28,0-.5,.22-.5,.5s.22,.5,.5,.5h17.49c.28,0,.5-.22,.5-.5s-.22-.5-.5-.5H26.45Z"/><path d="M43.95,25.91H26.45c-.28,0-.5,.22-.5,.5s.22,.5,.5,.5h17.49c.28,0,.5-.22,.5-.5s-.22-.5-.5-.5Z"/><path d="M13.7,26.46c.7,0,1.37-.25,1.91-.7,.67-.56,1.05-1.39,1.05-2.26,0-1.63-1.33-2.96-2.96-2.96s-2.96,1.33-2.96,2.96c0,.87,.38,1.69,1.05,2.26,.53,.45,1.21,.7,1.91,.7Zm1.96-2.96c0,.58-.25,1.12-.69,1.49-.71,.6-1.82,.6-2.52,0-.44-.37-.7-.92-.7-1.49,0-1.08,.88-1.96,1.96-1.96s1.96,.88,1.96,1.96Z"/></svg>

<svg id="b772bf42-7ffc-4881-81f6-fb6974d46907" data-name="ICONS" xmlns="http://www.w3.org/2000/svg" viewBox="0 0 50 50"><path d="M17.46,29.88a.44.44,0,0,1-.3,0H13.55a2.1,2.1,0,0,0-2,2.09v4.88h7.74V32A2.1,2.1,0,0,0,17.46,29.88Z" fill="#fdd600"/><path d="M13.49,25.26a2,2,0,0,0,.7,1.5,2,2,0,0,0,2.52,0,2,2,0,0,0,.7-1.5,2,2,0,0,0-3.92,0Z" fill="#fdd600"/><path d="M47.1,14.47h-20a3.15,3.15,0,0,1-4.28,0H4.13V41.86H49.37V14.47ZM21,35.09H6.41V18.17H21Z" fill="#fdd600"/><path d="M48.12,11.72H29.18V4.35a.5.5,0,0,0-.5-.5H21.32a.5.5,0,0,0-.5.5v7.37H1.88a.5.5,0,0,0-.5.5V40.61a.5.5,0,0,0,.5.5H48.12a.5.5,0,0,0,.5-.5V12.22A.5.5,0,0,0,48.12,11.72Zm-.5,28.39H2.38V12.72h18.5a4.16,4.16,0,0,0,8.24,0h18.5Zm-25.8-28V4.85h6.36v7.27a3.18,3.18,0,1,1-6.36,0Z" fill="#231f20"/><path d="M21.49,17.17H5.91a.5.5,0,0,0-.5.5V35.59a.5.5,0,0,0,.5.5H21.49a.5.5,0,0,0,.5-.5V17.67A.5.5,0,0,0,21.49,17.17ZM21,35.09H18.57V30.21a3.1,3.1,0,0,0-3-3.09H11.78a3.1,3.1,0,0,0-2.95,3.09v4.88H6.41V18.17H21Zm-11.16,0V30.21a2.1,2.1,0,0,1,2-2.09h3.61a.44.44,0,0,0,.3,0,2.1,2.1,0,0,1,1.86,2.08v4.88Z" fill="#231f20"/><path d="M44,32.06H26.45a.5.5,0,0,0-.5.5.51.51,0,0,0,.5.5H44a.51.51,0,0,0,.5-.5A.5.5,0,0,0,44,32.06Z" fill="#231f20"/><path d="M26.45,19.77a.5.5,0,0,0,0,1H44a.5.5,0,0,0,0-1Z" fill="#231f20"/><path d="M44,25.91H26.45a.51.51,0,0,0-.5.5.5.5,0,0,0,.5.5H44a.5.5,0,0,0,.5-.5A.51.51,0,0,0,44,25.91Z" fill="#231f20"/><path d="M13.7,26.46a3,3,0,1,0-1.91-.7A3,3,0,0,0,13.7,26.46Zm2-2.95A2,2,0,0,1,15,25a2,2,0,0,1-2.52,0,2,2,0,1,1,3.22-1.49Z" fill="#231f20"/></svg>
